ue4_srgb.cube
TITLE "Generated by Foundry::LUT"
LUT_3D_SIZE 5
DOMAIN_MIN 0.000000 0.000000 0.000000
DOMAIN_MAX 0.903226 0.903226 0.903226
0.000000 0.000000 0.000000
0.431732 0.000000 0.002111
0.656293 0.000000 0.009595
0.797343 0.000000 0.023595
0.889669 0.029399 0.043658
0.002985 0.514578 0.000000
0.517324 0.520387 0.000000
0.717421 0.527809 0.019548
0.825603 0.539545 0.052375
0.888114 0.554689 0.082417
0.040128 0.720312 0.043113
0.549765 0.719171 0.078247
0.723325 0.720135 0.110073
0.816786 0.724427 0.137625
0.872765 0.729071 0.163625
0.316006 0.814160 0.163393
0.607329 0.809779 0.187113
0.741507 0.808007 0.208747
0.817263 0.808494 0.229341
0.866059 0.810171 0.248906
0.469647 0.861932 0.256919
0.662992 0.857801 0.274642
0.764411 0.855399 0.292118
0.825547 0.854514 0.308835
0.866828 0.854547 0.324568
0.000000 0.000000 0.500163
0.481624 0.000000 0.502669
0.713849 0.000000 0.507922
0.835985 0.000000 0.513968
0.906797 0.037424 0.520047
0.005033 0.516440 0.517095
0.522659 0.522659 0.522658
0.700059 0.532086 0.528111
0.805753 0.544659 0.533706
0.870341 0.559920 0.539479
0.102663 0.720080 0.537751
0.548868 0.719516 0.543766
0.720264 0.721232 0.549909
0.811409 0.724264 0.556279
0.863120 0.729806 0.562504
0.297485 0.813258 0.563895
0.606135 0.809411 0.569944
0.738234 0.807969 0.576111
0.811342 0.808409 0.582406
0.858736 0.809616 0.588757
0.458732 0.861275 0.591528
0.657596 0.856821 0.597372
0.757809 0.854583 0.603306
0.818946 0.853922 0.609200
0.859901 0.854069 0.615075
0.000000 0.000000 0.712902
0.485828 0.000000 0.711346
0.717560 0.000000 0.711762
0.852256 0.000000 0.713595
0.929847 0.003927 0.716021
0.028018 0.518685 0.712712
0.522491 0.524110 0.714198
0.720660 0.530999 0.716056
0.827692 0.542329 0.718216
0.884612 0.557911 0.720266
0.122501 0.720556 0.717028
0.553044 0.720627 0.719039
0.721269 0.721269 0.721269
0.800025 0.725715 0.723646
0.851392 0.731597 0.726164
0.329175 0.812882 0.726105
0.606843 0.809320 0.728478
0.735542 0.807929 0.731041
0.808678 0.807961 0.733789
0.852999 0.809578 0.736480
0.473200 0.860246 0.737638
0.661122 0.855947 0.740109
0.757339 0.853889 0.742716
0.815169 0.853489 0.745371
0.854971 0.853944 0.748103
0.000000 0.000323 0.818570
0.496307 0.000150 0.814937
0.721851 0.000000 0.813092
0.854510 0.000000 0.812536
0.931474 0.051344 0.812761
0.039747 0.521276 0.808873
0.531135 0.526488 0.808143
0.723337 0.534054 0.807960
0.830656 0.544287 0.808158
0.892399 0.558192 0.808536
0.170458 0.722031 0.804636
0.558873 0.720587 0.804813
0.721496 0.721591 0.805270
0.809372 0.725687 0.805974
0.860460 0.731729 0.806801
0.335130 0.812958 0.805629
0.609510 0.809430 0.806300
0.735646 0.807787 0.807214
0.808260 0.808260 0.808260
0.848382 0.810241 0.809415
0.484903 0.859613 0.809531
0.664974 0.855725 0.810430
0.755889 0.854022 0.811532
0.814331 0.853588 0.812754
0.854031 0.854187 0.813975
0.010188 0.007366 0.874251
0.512137 0.008354 0.869730
0.729590 0.002906 0.866989
0.857527 0.012504 0.865525
0.931257 0.046290 0.864815
0.112703 0.523932 0.860309
0.544085 0.529330 0.858752
0.729796 0.537063 0.857612
0.832080 0.547613 0.857009
0.892923 0.561395 0.856788
0.159393 0.721976 0.852889
0.567557 0.721581 0.852390
0.725248 0.723065 0.852202
0.811730 0.727542 0.852278
0.863191 0.731912 0.852594
0.352051 0.813101 0.851211
0.621522 0.809109 0.851295
0.740382 0.807670 0.851605
0.808867 0.808423 0.852066
0.852898 0.810268 0.852662
0.498794 0.859097 0.852486
0.670000 0.855446 0.852813
0.757992 0.854118 0.853343
0.813404 0.853938 0.853979
0.854631 0.854631 0.854631
