ue4_srgb.cube
TITLE "Generated by Foundry::LUT"
LUT_3D_SIZE 8
DOMAIN_MIN 0.000000 0.000000 0.000000
DOMAIN_MAX 0.903226 0.903226 0.903226
0.000000 0.000000 0.000000
0.296978 0.000000 0.000397
0.470946 0.000000 0.002640
0.603539 0.000000 0.006939
0.702706 0.000000 0.013250
0.780499 0.000000 0.021248
0.842302 0.006985 0.031635
0.889669 0.029399 0.043658
0.000844 0.357011 0.000000
0.359282 0.363925 0.000000
0.544691 0.369834 0.000000
0.660598 0.377453 0.001984
0.743985 0.387460 0.011213
0.806790 0.398571 0.025404
0.854436 0.411038 0.041397
0.891233 0.424191 0.056811
0.004521 0.554371 0.000000
0.378368 0.557221 0.000272
0.557125 0.559596 0.007650
0.673675 0.562821 0.020989
0.755895 0.567441 0.038479
0.814000 0.573484 0.059596
0.855797 0.580460 0.077448
0.886512 0.588532 0.092870
0.008233 0.676054 0.011346
0.404353 0.676483 0.029163
0.570440 0.677382 0.049106
0.678709 0.678980 0.067717
0.755754 0.681110 0.089792
0.810425 0.683783 0.108407
0.847940 0.687730 0.124571
0.876930 0.692228 0.139103
0.143084 0.755371 0.073997
0.447958 0.754149 0.094660
0.594414 0.752764 0.115187
0.691874 0.752132 0.133134
0.759273 0.752361 0.148081
0.807201 0.753916 0.162315
0.842426 0.755793 0.175656
0.870123 0.758483 0.188147
0.288827 0.805307 0.146884
0.502798 0.802578 0.162031
0.625088 0.800369 0.176266
0.707467 0.799078 0.189599
0.766147 0.798867 0.202226
0.808769 0.799040 0.214329
0.841145 0.800076 0.226033
0.866670 0.801255 0.237371
0.390669 0.838271 0.205549
0.552799 0.835224 0.217676
0.653629 0.832931 0.229346
0.724532 0.831583 0.240922
0.775906 0.830781 0.251830
0.812570 0.830808 0.262678
0.842263 0.830994 0.273029
0.865779 0.831711 0.283020
0.469647 0.861932 0.256919
0.594673 0.859250 0.267091
0.679939 0.857415 0.277109
0.742588 0.855834 0.287166
0.783557 0.855030 0.296966
0.818602 0.854516 0.306461
0.844416 0.854496 0.315757
0.866828 0.854547 0.324568
0.000000 0.000000 0.342283
0.321854 0.000000 0.345245
0.521822 0.000000 0.350170
0.643391 0.000000 0.355671
0.726582 0.000000 0.361188
0.794168 0.000947 0.366756
0.850336 0.013877 0.372326
0.894611 0.009461 0.377923
0.001072 0.358368 0.361300
0.366505 0.366505 0.366504
0.532634 0.373860 0.371291
0.642980 0.383156 0.376128
0.726398 0.393402 0.381100
0.793685 0.403811 0.386060
0.843203 0.415924 0.391301
0.881405 0.428620 0.396547
0.000000 0.555432 0.378352
0.379829 0.558015 0.383806
0.559258 0.560561 0.389268
0.671745 0.564214 0.394671
0.750206 0.569282 0.399915
0.805016 0.575949 0.405034
0.845184 0.583210 0.410109
0.876790 0.591096 0.415223
0.089616 0.676533 0.397759
0.409048 0.677241 0.403106
0.572620 0.678229 0.408367
0.679434 0.679183 0.413779
0.753152 0.681215 0.419257
0.805947 0.684430 0.424669
0.843317 0.688455 0.429944
0.870335 0.693492 0.435201
0.149168 0.755379 0.418861
0.446374 0.753628 0.424403
0.593651 0.752384 0.429864
0.690585 0.752102 0.435264
0.756157 0.752551 0.440672
0.804298 0.754075 0.446057
0.838000 0.756336 0.451283
0.866201 0.759097 0.456531
0.267019 0.804494 0.441931
0.500741 0.801889 0.447244
0.624841 0.800012 0.452546
0.705409 0.798786 0.457830
0.763585 0.798591 0.463005
0.804500 0.799076 0.468291
0.837923 0.800106 0.473368
0.861941 0.801500 0.478480
0.379458 0.837482 0.465276
0.551657 0.834637 0.470333
0.654258 0.832387 0.475326
0.721628 0.831138 0.480422
0.771842 0.830553 0.485387
0.808991 0.830512 0.490416
0.838015 0.830856 0.495266
0.862067 0.831590 0.500206
0.464736 0.861513 0.487957
0.597674 0.858889 0.492701
0.677647 0.856757 0.497500
0.739020 0.855349 0.502295
0.780385 0.854520 0.507074
0.814420 0.854166 0.511826
0.840664 0.854090 0.516442
0.862966 0.854209 0.521169
0.000000 0.000000 0.540718
0.320111 0.000000 0.541441
0.525489 0.000000 0.542790
0.662427 0.000000 0.545138
0.760466 0.000000 0.547918
0.828974 0.000000 0.550889
0.876950 0.002413 0.553952
0.912382 0.036360 0.556926
0.013042 0.360702 0.548266
0.364409 0.367413 0.550551
0.552442 0.372536 0.552878
0.672378 0.378977 0.555522
0.751696 0.389405 0.558127
0.806513 0.401730 0.560758
0.850339 0.415258 0.563513
0.883527 0.429214 0.566369
0.021997 0.556158 0.556106
0.383372 0.558955 0.558891
0.561690 0.561690 0.561689
0.661588 0.566434 0.564407
0.737962 0.571663 0.567240
0.793537 0.578501 0.570096
0.834408 0.585558 0.573005
0.866204 0.593626 0.575959
0.027252 0.677126 0.565976
0.408996 0.677700 0.568873
0.572518 0.678248 0.571885
0.678928 0.679262 0.574973
0.749210 0.681730 0.578019
0.799818 0.685579 0.581127
0.835006 0.690078 0.584166
0.861415 0.695404 0.587145
0.175079 0.754856 0.577764
0.451077 0.753209 0.580871
0.594393 0.752067 0.583988
0.689143 0.751913 0.587140
0.753051 0.752832 0.590383
0.800651 0.754484 0.593540
0.833122 0.757115 0.596761
0.861190 0.759378 0.599934
0.277483 0.803903 0.591220
0.500597 0.801359 0.594344
0.622743 0.799561 0.597494
0.702977 0.798645 0.600659
0.761600 0.798392 0.603864
0.801146 0.799169 0.607097
0.834172 0.800250 0.610288
0.857727 0.801609 0.613461
0.374633 0.836901 0.605338
0.549531 0.834107 0.608388
0.652348 0.832097 0.611454
0.720379 0.830779 0.614644
0.769053 0.830403 0.617743
0.806378 0.830297 0.620978
0.834327 0.830817 0.624072
0.858890 0.831541 0.627251
0.462072 0.861079 0.619494
0.595060 0.858266 0.622535
0.677643 0.856144 0.625573
0.735197 0.854889 0.628629
0.778452 0.854050 0.631721
0.811219 0.853863 0.634784
0.837544 0.853746 0.637810
0.858884 0.854019 0.640908
0.000000 0.000000 0.666071
0.320044 0.000000 0.665600
0.527055 0.000000 0.665492
0.663693 0.000000 0.666252
0.762826 0.000000 0.667585
0.838362 0.004897 0.669243
0.890464 0.000000 0.671133
0.927125 0.023564 0.673106
0.002130 0.362425 0.668049
0.365987 0.369335 0.668868
0.553615 0.374317 0.669865
0.675586 0.380126 0.671021
0.765397 0.387702 0.672450
0.827436 0.397967 0.674076
0.871247 0.410954 0.675663
0.901112 0.424426 0.677297
0.000000 0.557382 0.670411
0.383921 0.559772 0.671763
0.560864 0.562313 0.673227
0.676163 0.565655 0.674814
0.753589 0.570216 0.676468
0.806571 0.577156 0.678108
0.842267 0.585012 0.679815
0.869502 0.593540 0.681492
0.103206 0.677488 0.674859
0.408766 0.677700 0.676515
0.572685 0.678316 0.678212
0.679944 0.679944 0.679943
0.742785 0.683009 0.681743
0.791204 0.687197 0.683564
0.826882 0.691738 0.685395
0.854732 0.696598 0.687296
0.140328 0.754567 0.681317
0.457723 0.753257 0.683110
0.593313 0.752414 0.684972
0.687643 0.752295 0.686906
0.752812 0.753365 0.688822
0.795032 0.755494 0.690819
0.827959 0.757435 0.692811
0.853925 0.759609 0.694896
0.296378 0.803503 0.689383
0.500962 0.801101 0.691268
0.624210 0.799327 0.693182
0.702531 0.798750 0.695127
0.757538 0.798770 0.697174
0.799049 0.799529 0.699197
0.830221 0.800490 0.701296
0.854082 0.801487 0.703367
0.390954 0.836365 0.698267
0.553274 0.833556 0.700140
0.651442 0.831751 0.702105
0.718557 0.830558 0.703941
0.767201 0.830279 0.705785
0.803400 0.830280 0.707616
0.831574 0.830867 0.709505
0.856078 0.831617 0.711320
0.460747 0.860530 0.706604
0.592554 0.857801 0.708308
0.678638 0.855747 0.710035
0.732983 0.854570 0.711869
0.776686 0.853812 0.713659
0.808699 0.853646 0.715511
0.835484 0.853540 0.717374
0.856283 0.853931 0.719131
0.000000 0.000000 0.751347
0.324496 0.000000 0.749871
0.530580 0.000000 0.748686
0.666263 0.001036 0.748319
0.764232 0.000000 0.748490
0.837721 0.000000 0.748993
0.892150 0.015193 0.749794
0.930649 0.010201 0.750723
0.009217 0.364729 0.748534
0.371791 0.370889 0.748320
0.556763 0.376689 0.748163
0.677115 0.382262 0.748361
0.765599 0.389769 0.748858
0.830091 0.399143 0.749456
0.876471 0.411709 0.750208
0.909088 0.423663 0.751146
0.055873 0.558221 0.746752
0.384035 0.560930 0.747144
0.562436 0.563347 0.747663
0.677435 0.566745 0.748329
0.757671 0.570749 0.749052
0.814852 0.576670 0.749926
0.854815 0.583498 0.750897
0.883671 0.591699 0.751867
0.079103 0.677707 0.747428
0.415681 0.677908 0.748139
0.575319 0.678573 0.748918
0.680728 0.680286 0.749754
0.749929 0.683047 0.750758
0.801766 0.686856 0.751780
0.833131 0.691310 0.752859
0.860360 0.695621 0.753977
0.139460 0.754371 0.750094
0.460252 0.753140 0.750999
0.597650 0.752657 0.751981
0.686223 0.752876 0.753044
0.754122 0.754123 0.754122
0.791201 0.755816 0.755327
0.824151 0.757668 0.756341
0.848384 0.760072 0.757446
0.274004 0.803138 0.754181
0.507275 0.800988 0.755045
0.623294 0.799422 0.755964
0.704450 0.798858 0.756953
0.755948 0.799155 0.758012
0.799263 0.799617 0.759115
0.827269 0.800575 0.760218
0.850670 0.801724 0.761364
0.401856 0.836079 0.758325
0.556557 0.833382 0.759242
0.652660 0.831582 0.760281
0.717926 0.830613 0.761319
0.767045 0.830256 0.762452
0.801831 0.830454 0.763548
0.830583 0.831056 0.764741
0.853107 0.831852 0.765855
0.476395 0.860099 0.762951
0.594885 0.857407 0.763929
0.679706 0.855565 0.764908
0.733366 0.854363 0.766057
0.775504 0.853778 0.767147
0.807555 0.853564 0.768335
0.833475 0.853592 0.769508
0.854739 0.853991 0.770622
0.000000 0.000000 0.807552
0.329951 0.000000 0.805472
0.536836 0.000000 0.803661
0.669010 0.000000 0.802645
0.766602 0.000000 0.802143
0.838842 0.000000 0.801942
0.891364 0.015990 0.802083
0.931158 0.038746 0.802356
0.024588 0.366606 0.801998
0.382983 0.373503 0.800959
0.563061 0.379105 0.800243
0.680932 0.384041 0.799832
0.767166 0.392299 0.799618
0.829545 0.402307 0.799656
0.876875 0.413881 0.799865
0.909584 0.425567 0.800182
0.089483 0.559609 0.797472
0.392509 0.562004 0.797235
0.567439 0.564368 0.797147
0.679241 0.567915 0.797175
0.758422 0.572226 0.797340
0.815932 0.577998 0.797602
0.855355 0.584895 0.798058
0.887780 0.592090 0.798522
0.106819 0.678129 0.795579
0.426199 0.678668 0.795677
0.577782 0.679521 0.795869
0.682283 0.681293 0.796152
0.751245 0.684305 0.796551
0.802379 0.687318 0.797093
0.840155 0.690409 0.797685
0.867118 0.694913 0.798303
0.208049 0.754637 0.795711
0.461784 0.753561 0.796042
0.604003 0.753184 0.796423
0.686965 0.753810 0.796936
0.752814 0.754152 0.797448
0.796714 0.755062 0.798046
0.830824 0.756925 0.798634
0.853526 0.759462 0.799251
0.313196 0.803086 0.797120
0.515094 0.801098 0.797489
0.624259 0.799823 0.797932
0.705350 0.799330 0.798414
0.756181 0.799391 0.799048
0.799673 0.799674 0.799673
0.825131 0.800737 0.800379
0.848416 0.801963 0.801064
0.401479 0.835828 0.799186
0.559009 0.833349 0.799652
0.655943 0.831515 0.800194
0.718547 0.830764 0.800814
0.767307 0.830408 0.801466
0.800909 0.830764 0.802172
0.830806 0.831188 0.802909
0.851258 0.831858 0.803611
0.483625 0.859770 0.801763
0.601147 0.857129 0.802335
0.679753 0.855407 0.802941
0.735289 0.854185 0.803633
0.775770 0.853763 0.804323
0.807456 0.853518 0.805097
0.832610 0.853680 0.805828
0.853892 0.854116 0.806609
0.000081 0.001292 0.846102
0.341224 0.000453 0.843646
0.543574 0.001220 0.841486
0.674019 0.000000 0.840050
0.769186 0.001573 0.839145
0.841014 0.000000 0.838598
0.892478 0.014870 0.838264
0.930789 0.043213 0.838159
0.040963 0.370014 0.838698
0.387519 0.375677 0.837367
0.567776 0.380861 0.836299
0.683423 0.387147 0.835438
0.769810 0.395516 0.834867
0.831167 0.404328 0.834547
0.877047 0.416171 0.834386
0.909791 0.428120 0.834277
0.048293 0.561055 0.832638
0.409216 0.563291 0.832031
0.572962 0.565750 0.831518
0.684055 0.569217 0.831155
0.759539 0.574224 0.830992
0.816969 0.579586 0.830959
0.855876 0.586155 0.831041
0.887692 0.593265 0.831170
0.109490 0.678900 0.829074
0.436938 0.679710 0.828802
0.584464 0.680850 0.828641
0.682523 0.682614 0.828623
0.755334 0.684673 0.828704
0.802841 0.687564 0.828915
0.841544 0.690802 0.829179
0.869065 0.695457 0.829488
0.244046 0.755487 0.827608
0.462939 0.754481 0.827606
0.602936 0.754171 0.827697
0.694277 0.753458 0.827898
0.752969 0.754065 0.828237
0.799613 0.754944 0.828592
0.832106 0.757112 0.829025
0.859137 0.759056 0.829465
0.278456 0.803408 0.827892
0.517657 0.801579 0.828049
0.629143 0.800459 0.828271
0.703942 0.799638 0.828644
0.759300 0.799188 0.829065
0.798722 0.799612 0.829550
0.829064 0.800222 0.829995
0.853367 0.801405 0.830433
0.419711 0.835656 0.829097
0.566687 0.833357 0.829301
0.655867 0.831727 0.829581
0.721270 0.830986 0.829921
0.766449 0.830823 0.830318
0.800831 0.831005 0.830775
0.831227 0.831228 0.831227
0.849662 0.831983 0.831741
0.482901 0.859413 0.830515
0.606745 0.856880 0.830790
0.681010 0.855220 0.831170
0.736369 0.854145 0.831567
0.776162 0.853799 0.832043
0.807915 0.853542 0.832524
0.832040 0.853842 0.833033
0.853705 0.854302 0.833561
0.010188 0.007366 0.874251
0.356820 0.001414 0.871616
0.550860 0.005138 0.869271
0.679055 0.001080 0.867643
0.772957 0.003081 0.866490
0.843516 0.010684 0.865684
0.893605 0.023018 0.865168
0.931257 0.046290 0.864815
0.065418 0.372040 0.865894
0.400763 0.377525 0.864319
0.574690 0.384198 0.862966
0.689759 0.389413 0.861925
0.772989 0.397211 0.861199
0.832358 0.407298 0.860630
0.877312 0.419938 0.860190
0.909727 0.431323 0.859943
0.076969 0.561980 0.858857
0.424127 0.564772 0.857975
0.579158 0.567692 0.857270
0.686825 0.570711 0.856739
0.763065 0.575379 0.856360
0.817341 0.581025 0.856122
0.856624 0.587585 0.855949
0.887201 0.595262 0.855847
0.177433 0.679931 0.854332
0.439016 0.680520 0.853868
0.591935 0.681889 0.853502
0.688262 0.682914 0.853245
0.756679 0.685381 0.853140
0.804762 0.688331 0.853105
0.840787 0.692326 0.853155
0.869720 0.696919 0.853222
0.208182 0.756010 0.851932
0.478650 0.755086 0.851700
0.609612 0.753790 0.851604
0.696725 0.753608 0.851623
0.756542 0.754183 0.851684
0.799467 0.755652 0.851864
0.833091 0.757967 0.852030
0.859321 0.760087 0.852293
0.331637 0.803885 0.851190
0.520765 0.802015 0.851153
0.638058 0.800382 0.851222
0.707720 0.799393 0.851371
0.761818 0.799171 0.851605
0.799424 0.799692 0.851866
0.830369 0.800359 0.852180
0.853929 0.801700 0.852512
0.408090 0.835890 0.851539
0.573358 0.833547 0.851609
0.657323 0.832096 0.851772
0.725649 0.831238 0.851993
0.766458 0.830984 0.852298
0.803380 0.830774 0.852625
0.830434 0.831133 0.853009
0.852541 0.831557 0.853391
0.498794 0.859097 0.852486
0.608999 0.856868 0.852661
0.686548 0.855074 0.852884
0.735701 0.854356 0.853191
0.777723 0.853878 0.853501
0.807067 0.853868 0.853884
0.831712 0.854193 0.854261
0.854631 0.854631 0.854631
