ue4_srgb.cube
TITLE "Generated by Foundry::LUT"
LUT_3D_SIZE 32
0.000000 0.000000 0.000000
0.104626 0.000000 0.000000
0.181719 0.000000 0.000000
0.244456 0.000000 0.000000
0.296978 0.000000 0.000397
0.344913 0.000000 0.000960
0.389682 0.000000 0.001529
0.431732 0.000000 0.002111
0.470946 0.000000 0.002640
0.508503 0.000000 0.003602
0.542573 0.000000 0.004566
0.574326 0.000000 0.005724
0.603539 0.000000 0.006939
0.630970 0.000000 0.008457
0.656293 0.000000 0.009595
0.680293 0.000000 0.011639
0.702706 0.000000 0.013250
0.723736 0.000000 0.014674
0.743765 0.000000 0.017247
0.762642 0.000000 0.019397
0.780499 0.000000 0.021248
0.797343 0.000000 0.023595
0.813111 0.000000 0.026759
0.828040 0.003193 0.029306
0.842302 0.006985 0.031635
0.855980 0.010539 0.033981
0.867721 0.010539 0.037435
0.878982 0.013377 0.040714
0.889669 0.029399 0.043658
0.899980 0.044859 0.046498
0.909943 0.059795 0.049243
0.918491 0.063048 0.052503
0.000000 0.117682 0.000000
0.118908 0.121456 0.000000
0.208216 0.121715 0.000000
0.272738 0.121203 0.000033
0.326993 0.121038 0.000291
0.374699 0.120950 0.000452
0.418452 0.120056 0.001146
0.459142 0.119745 0.001573
0.497290 0.120453 0.002018
0.531900 0.119691 0.003234
0.564089 0.119912 0.004121
0.593528 0.121103 0.005101
0.621193 0.123092 0.006797
0.646764 0.125381 0.008343
0.670786 0.127706 0.009608
0.693368 0.129037 0.011637
0.714554 0.130681 0.013756
0.734677 0.134184 0.016145
0.753700 0.138241 0.018350
0.771586 0.142240 0.020403
0.788489 0.146581 0.023040
0.804219 0.152203 0.026063
0.819237 0.157758 0.028952
0.833603 0.163242 0.031719
0.847217 0.168743 0.034210
0.858983 0.175433 0.037680
0.870119 0.182168 0.041089
0.880841 0.188406 0.044375
0.891193 0.193821 0.047526
0.901187 0.199164 0.050534
0.909938 0.206306 0.053641
0.917708 0.213248 0.056922
0.000000 0.214145 0.000000
0.116645 0.216370 0.000000
0.213028 0.217563 0.000000
0.285449 0.217893 0.000000
0.345535 0.217821 0.000000
0.397290 0.218680 0.000000
0.443357 0.219311 0.000319
0.484612 0.220411 0.000643
0.521119 0.221575 0.001374
0.554169 0.222886 0.002517
0.584142 0.225412 0.003037
0.612324 0.228079 0.003567
0.638081 0.229967 0.004684
0.662246 0.232194 0.007012
0.684945 0.234687 0.009427
0.706083 0.238010 0.010972
0.726047 0.241846 0.012773
0.744992 0.245329 0.014812
0.762955 0.248353 0.017472
0.779978 0.251502 0.020490
0.795716 0.255258 0.024023
0.810730 0.259045 0.027407
0.824832 0.263425 0.029886
0.838295 0.267861 0.032159
0.850156 0.272829 0.035240
0.861209 0.277929 0.039010
0.871844 0.282977 0.042646
0.882092 0.287972 0.046155
0.892034 0.292321 0.049452
0.900918 0.297124 0.052768
0.908686 0.302224 0.056126
0.916136 0.307217 0.059393
0.000540 0.289625 0.000000
0.093806 0.292100 0.000000
0.212699 0.293863 0.000000
0.289704 0.294928 0.000000
0.353531 0.295744 0.000000
0.410150 0.296326 0.000000
0.458077 0.297743 0.000000
0.499384 0.299526 0.000000
0.537302 0.301434 0.000216
0.569268 0.303249 0.000812
0.599269 0.305297 0.001371
0.626967 0.307607 0.001897
0.651925 0.309671 0.004622
0.674901 0.312528 0.005740
0.696403 0.315565 0.006759
0.716714 0.318801 0.008507
0.735967 0.322201 0.010895
0.754074 0.325250 0.013214
0.771184 0.328108 0.016399
0.786910 0.331399 0.020348
0.801826 0.334774 0.024185
0.815912 0.338341 0.027461
0.829348 0.341974 0.030492
0.841340 0.345927 0.033896
0.852311 0.350064 0.037470
0.862881 0.354080 0.040932
0.873147 0.357668 0.044646
0.883044 0.361260 0.048243
0.892051 0.365087 0.051792
0.899917 0.369264 0.055326
0.907527 0.373413 0.058759
0.914715 0.377497 0.062348
0.000844 0.357011 0.000000
0.071449 0.359231 0.000000
0.210726 0.361057 0.000000
0.292934 0.362464 0.000000
0.359282 0.363925 0.000000
0.417150 0.365549 0.000000
0.464384 0.366780 0.000000
0.508009 0.368350 0.000000
0.544691 0.369834 0.000000
0.577970 0.371476 0.000000
0.608746 0.373392 0.000000
0.636041 0.375300 0.000684
0.660598 0.377453 0.001984
0.683529 0.379823 0.003017
0.705120 0.382371 0.004916
0.725572 0.385090 0.008163
0.743985 0.387460 0.011213
0.761417 0.389932 0.013895
0.777358 0.392724 0.017268
0.792409 0.395627 0.021147
0.806790 0.398571 0.025404
0.820549 0.401553 0.029509
0.832839 0.404800 0.033629
0.843852 0.407908 0.037575
0.854436 0.411038 0.041397
0.864624 0.414184 0.045105
0.874422 0.417345 0.048845
0.883491 0.420622 0.052710
0.891233 0.424191 0.056811
0.898731 0.427742 0.060793
0.905988 0.431278 0.064665
0.913020 0.434797 0.068431
0.001188 0.417055 0.000000
0.063510 0.419153 0.000000
0.202221 0.420709 0.000000
0.293836 0.422120 0.000000
0.364492 0.423594 0.000000
0.419586 0.424552 0.000000
0.469844 0.425827 0.000000
0.511345 0.426868 0.000000
0.549134 0.428096 0.000000
0.584122 0.429580 0.000000
0.613446 0.430887 0.000000
0.640896 0.432398 0.000000
0.666508 0.434096 0.000000
0.690451 0.436120 0.001503
0.711306 0.438010 0.005669
0.730879 0.440004 0.009631
0.749417 0.442105 0.013428
0.766376 0.444447 0.017692
0.782219 0.446928 0.022074
0.797178 0.449384 0.026181
0.811007 0.451646 0.029803
0.823680 0.454097 0.033784
0.834901 0.456813 0.038277
0.845689 0.459553 0.042702
0.856068 0.462314 0.047000
0.865906 0.465136 0.051597
0.875197 0.468012 0.056062
0.882924 0.471160 0.060386
0.890399 0.474117 0.064367
0.897635 0.476987 0.068142
0.904642 0.479859 0.071828
0.911433 0.482731 0.075431
0.001847 0.469261 0.000000
0.080750 0.470832 0.000000
0.197980 0.472014 0.000000
0.298665 0.473131 0.000000
0.366319 0.474051 0.000000
0.424749 0.475104 0.000000
0.471866 0.475930 0.000000
0.515206 0.477013 0.000000
0.552654 0.477992 0.000000
0.585671 0.479027 0.000143
0.616840 0.480251 0.001885
0.645486 0.481620 0.002856
0.669890 0.482854 0.003743
0.693017 0.484278 0.007167
0.714830 0.485832 0.010424
0.735458 0.487503 0.013440
0.753866 0.489365 0.018421
0.769867 0.491232 0.023565
0.785123 0.493173 0.028534
0.799700 0.495178 0.033339
0.813275 0.497306 0.038094
0.825039 0.499704 0.043035
0.836332 0.502131 0.047828
0.846973 0.504468 0.052198
0.856997 0.506712 0.056160
0.866625 0.508989 0.060504
0.874487 0.511595 0.064708
0.882099 0.514207 0.068706
0.889464 0.516824 0.072590
0.896596 0.519444 0.076377
0.903414 0.522062 0.080294
0.909965 0.524677 0.084263
0.002985 0.514578 0.000000
0.094392 0.515765 0.000000
0.203696 0.516764 0.000000
0.302998 0.517585 0.000000
0.371016 0.518213 0.000000
0.427750 0.518943 0.000000
0.476160 0.519678 0.000000
0.517324 0.520387 0.000000
0.555190 0.521340 0.000000
0.589226 0.522278 0.001166
0.618792 0.523147 0.004250
0.646444 0.524190 0.007207
0.672634 0.525389 0.011934
0.696497 0.526635 0.015230
0.717421 0.527809 0.019548
0.736815 0.529168 0.024066
0.754647 0.530720 0.028906
0.771633 0.532350 0.033574
0.787845 0.534046 0.038151
0.802235 0.535689 0.042774
0.814189 0.537593 0.047545
0.825603 0.539545 0.052375
0.836538 0.541536 0.057225
0.847063 0.543559 0.061945
0.857207 0.545610 0.066543
0.865619 0.547913 0.070817
0.873551 0.550262 0.074959
0.880992 0.552492 0.078770
0.888114 0.554689 0.082417
0.894986 0.556902 0.086361
0.901649 0.559123 0.090218
0.907551 0.561471 0.093919
0.004521 0.554371 0.000000
0.100728 0.555280 0.000000
0.215962 0.555968 0.000000
0.306833 0.556602 0.000114
0.378368 0.557221 0.000272
0.431342 0.557743 0.001316
0.480034 0.558424 0.003241
0.520834 0.559012 0.004079
0.557125 0.559596 0.007650
0.590979 0.560358 0.011499
0.621945 0.561229 0.013291
0.648582 0.561942 0.017673
0.673675 0.562821 0.020989
0.697371 0.563833 0.023713
0.719498 0.564988 0.027846
0.738672 0.566224 0.032632
0.755895 0.567441 0.038479
0.772334 0.568734 0.044144
0.788052 0.570096 0.049640
0.801324 0.571764 0.054691
0.814000 0.573484 0.059596
0.826072 0.575226 0.064214
0.836751 0.576871 0.068801
0.847043 0.578551 0.073269
0.855797 0.580460 0.077448
0.863860 0.582456 0.081468
0.871654 0.584469 0.085394
0.879196 0.586495 0.089215
0.886512 0.588532 0.092870
0.893582 0.590568 0.096517
0.899910 0.592663 0.100285
0.905219 0.594735 0.103739
0.004521 0.589815 0.000000
0.122065 0.590299 0.000000
0.231192 0.590907 0.000141
0.312769 0.591264 0.000893
0.385127 0.591886 0.001034
0.437005 0.592220 0.003441
0.482969 0.592726 0.005985
0.525283 0.593375 0.006417
0.560449 0.593816 0.011688
0.592641 0.594370 0.017218
0.622949 0.595059 0.022804
0.651366 0.595878 0.026242
0.675650 0.596526 0.031704
0.698288 0.597289 0.037156
0.718928 0.598255 0.042432
0.738569 0.599307 0.047544
0.757261 0.600438 0.051806
0.773811 0.601515 0.056446
0.787528 0.602813 0.061386
0.800399 0.604204 0.066146
0.812753 0.605627 0.070773
0.824619 0.607058 0.075431
0.836049 0.608527 0.080121
0.845966 0.610189 0.084588
0.854487 0.611907 0.088619
0.862316 0.613580 0.092645
0.869889 0.615274 0.096584
0.877222 0.616987 0.100439
0.884328 0.618716 0.104216
0.890897 0.620519 0.107887
0.896549 0.622467 0.111417
0.902036 0.624421 0.114881
0.006356 0.621568 0.000000
0.116167 0.621964 0.000661
0.248056 0.622399 0.002965
0.323541 0.622658 0.005868
0.389314 0.623008 0.010034
0.443939 0.623399 0.013730
0.487332 0.623697 0.019155
0.527662 0.624139 0.024101
0.564750 0.624715 0.027123
0.595537 0.625071 0.032504
0.624570 0.625557 0.037823
0.651981 0.626151 0.042299
0.677795 0.626834 0.043915
0.699566 0.627528 0.048217
0.719537 0.628233 0.052128
0.738588 0.629022 0.057395
0.756790 0.629886 0.062697
0.772712 0.630992 0.067664
0.787324 0.632224 0.073262
0.800040 0.633364 0.078187
0.812075 0.634530 0.082853
0.823665 0.635737 0.087408
0.833964 0.637110 0.091777
0.843006 0.638643 0.095967
0.851739 0.640199 0.100068
0.860181 0.641775 0.104084
0.868350 0.643369 0.107882
0.875650 0.644877 0.111515
0.882451 0.646422 0.115100
0.888192 0.648144 0.118535
0.893767 0.649875 0.121905
0.899185 0.651615 0.125220
0.006356 0.650335 0.009391
0.135027 0.650468 0.014053
0.255452 0.650814 0.015841
0.333320 0.650898 0.018895
0.395606 0.651102 0.021911
0.451438 0.651465 0.022630
0.493094 0.651587 0.026058
0.531523 0.651853 0.029411
0.567249 0.652260 0.032232
0.599555 0.652694 0.036849
0.627386 0.652992 0.042887
0.653726 0.653404 0.048733
0.677873 0.654005 0.053988
0.700634 0.654707 0.059835
0.721203 0.655375 0.065517
0.739649 0.655991 0.070668
0.756070 0.656823 0.075523
0.770949 0.657814 0.080145
0.785229 0.658856 0.084656
0.798953 0.659942 0.089063
0.812019 0.661066 0.094371
0.822687 0.662182 0.098645
0.831858 0.663498 0.102720
0.840729 0.664774 0.106919
0.849346 0.665879 0.111640
0.857691 0.667011 0.115598
0.865776 0.668166 0.119480
0.873557 0.669350 0.123288
0.879944 0.670757 0.126941
0.886007 0.672140 0.130430
0.891507 0.673447 0.133944
0.896854 0.674765 0.137398
0.008233 0.676054 0.011346
0.126747 0.676097 0.014622
0.257499 0.676269 0.017670
0.346335 0.676369 0.023075
0.404353 0.676483 0.029163
0.456148 0.676721 0.033175
0.499860 0.676929 0.038064
0.536318 0.677094 0.043895
0.570440 0.677382 0.049106
0.602384 0.677789 0.053025
0.630916 0.678143 0.057650
0.655519 0.678505 0.062806
0.678709 0.678980 0.067717
0.700807 0.679536 0.072499
0.721879 0.680087 0.078074
0.740554 0.680586 0.084319
0.755754 0.681110 0.089792
0.770347 0.681689 0.095150
0.784378 0.682320 0.100056
0.797889 0.683000 0.104289
0.810425 0.683783 0.108407
0.820925 0.684805 0.112473
0.830761 0.685824 0.116799
0.839491 0.686764 0.120722
0.847940 0.687730 0.124571
0.856125 0.688721 0.128347
0.864062 0.689734 0.132055
0.870642 0.690966 0.135613
0.876930 0.692228 0.139103
0.883038 0.693502 0.142534
0.888976 0.694787 0.145910
0.894750 0.696080 0.149193
0.008233 0.699636 0.027012
0.135643 0.699591 0.032802
0.264167 0.699698 0.036897
0.358962 0.699815 0.041282
0.412237 0.699830 0.046563
0.461737 0.699902 0.050885
0.507268 0.699935 0.054837
0.542101 0.699765 0.060379
0.574960 0.699715 0.065764
0.605996 0.699773 0.070771
0.634459 0.699973 0.076377
0.659079 0.700091 0.082326
0.681646 0.700212 0.087220
0.703199 0.700413 0.091734
0.723021 0.700758 0.096088
0.740334 0.701319 0.100588
0.756858 0.701933 0.105396
0.771053 0.702406 0.109605
0.784719 0.702926 0.113724
0.797673 0.703520 0.117744
0.808323 0.704388 0.121576
0.818604 0.705286 0.125334
0.828541 0.706210 0.129022
0.838125 0.707162 0.132896
0.846964 0.708083 0.136801
0.854992 0.708953 0.140415
0.861816 0.710017 0.143892
0.868185 0.711141 0.147291
0.874373 0.712279 0.150634
0.880388 0.713430 0.153922
0.886239 0.714592 0.157158
0.892000 0.715525 0.160648
0.040128 0.720312 0.043113
0.173151 0.719974 0.047801
0.295664 0.719810 0.051447
0.373665 0.719655 0.057382
0.424523 0.719393 0.062273
0.471866 0.719267 0.067127
0.513795 0.719252 0.073020
0.549765 0.719171 0.078247
0.581228 0.719071 0.082983
0.610468 0.719101 0.087466
0.637581 0.719251 0.092228
0.663281 0.719481 0.097336
0.685373 0.719557 0.101790
0.705739 0.719723 0.106044
0.723325 0.720135 0.110073
0.740197 0.720599 0.114014
0.756362 0.721113 0.118117
0.771826 0.721677 0.122604
0.785499 0.722144 0.126638
0.796328 0.722870 0.130373
0.806731 0.723634 0.134033
0.816786 0.724427 0.137625
0.826640 0.724992 0.141562
0.836206 0.725541 0.145504
0.845480 0.726113 0.149382
0.853456 0.726845 0.153222
0.860258 0.727598 0.156784
0.866599 0.728326 0.160231
0.872765 0.729071 0.163625
0.878765 0.729830 0.166967
0.884607 0.730603 0.170260
0.890298 0.731389 0.173504
0.096408 0.738414 0.056831
0.219655 0.738097 0.062112
0.309690 0.737865 0.067615
0.388806 0.737763 0.073691
0.437048 0.737491 0.078589
0.480235 0.737323 0.083044
0.520414 0.737268 0.088288
0.557563 0.737279 0.093590
0.587295 0.737159 0.097979
0.614863 0.737166 0.102112
0.641120 0.737252 0.106148
0.665973 0.737417 0.110856
0.689266 0.737639 0.115526
0.707245 0.737655 0.119960
0.724517 0.737704 0.124353
0.741120 0.737804 0.128662
0.757098 0.737953 0.132892
0.772470 0.738146 0.137193
0.785175 0.738576 0.141515
0.796412 0.738999 0.145346
0.806723 0.739394 0.148992
0.816703 0.739818 0.152574
0.826371 0.740269 0.156095
0.835744 0.740747 0.159557
0.844038 0.741354 0.162937
0.851393 0.742075 0.166242
0.858537 0.742810 0.169502
0.865441 0.743563 0.172959
0.871635 0.744250 0.176249
0.877537 0.744931 0.179461
0.883287 0.745626 0.182627
0.888891 0.746334 0.185748
0.143084 0.755371 0.073997
0.239895 0.755007 0.078654
0.323459 0.754769 0.083646
0.398814 0.754659 0.089393
0.447958 0.754149 0.094660
0.489507 0.753691 0.099599
0.528571 0.753337 0.104885
0.564683 0.753079 0.110491
0.594414 0.752764 0.115187
0.621235 0.752459 0.119738
0.646840 0.752229 0.124197
0.671294 0.752069 0.128703
0.691874 0.752132 0.133134
0.710811 0.752205 0.137040
0.727581 0.752209 0.140793
0.743721 0.752262 0.144472
0.759273 0.752361 0.148081
0.772550 0.752663 0.151586
0.784687 0.753062 0.155047
0.796316 0.753496 0.158734
0.807201 0.753916 0.162315
0.816959 0.754277 0.165750
0.826420 0.754665 0.169129
0.834993 0.755159 0.172433
0.842426 0.755793 0.175656
0.849646 0.756443 0.178831
0.856664 0.757109 0.181958
0.863490 0.757789 0.185040
0.870123 0.758483 0.188147
0.876556 0.759192 0.191376
0.882224 0.759821 0.194428
0.887125 0.760579 0.197404
0.181903 0.769671 0.094892
0.270062 0.769053 0.100015
0.351389 0.768564 0.105388
0.414749 0.768151 0.110804
0.462070 0.767679 0.115648
0.501779 0.767221 0.120325
0.539095 0.766859 0.124511
0.572128 0.766590 0.128588
0.602734 0.766356 0.132542
0.628592 0.766034 0.136311
0.653322 0.765782 0.139999
0.674728 0.765726 0.143555
0.694630 0.765757 0.147206
0.713629 0.765841 0.150974
0.730895 0.765886 0.154614
0.746588 0.765896 0.158135
0.760308 0.766083 0.161560
0.772575 0.766396 0.164903
0.784430 0.766740 0.168189
0.795898 0.767112 0.171421
0.806900 0.767517 0.174894
0.817467 0.767935 0.178304
0.826315 0.768323 0.181539
0.833821 0.768878 0.184688
0.841113 0.769451 0.187788
0.848214 0.770010 0.190871
0.855230 0.770356 0.194126
0.862060 0.770717 0.197338
0.868715 0.771092 0.200506
0.875202 0.771482 0.203635
0.880910 0.771969 0.206735
0.886048 0.772502 0.209830
0.219265 0.782374 0.116164
0.303073 0.781791 0.120129
0.371786 0.781290 0.123986
0.428053 0.780871 0.128077
0.475850 0.780455 0.132000
0.513876 0.780003 0.135747
0.547745 0.779637 0.139297
0.579666 0.779353 0.143054
0.609976 0.779142 0.146849
0.635998 0.778854 0.150476
0.657978 0.778692 0.153952
0.678183 0.778636 0.157337
0.697590 0.778630 0.160660
0.716083 0.778677 0.164199
0.733851 0.778767 0.167740
0.748539 0.778889 0.171120
0.760954 0.779081 0.174430
0.773109 0.779096 0.177901
0.784871 0.779142 0.181317
0.796265 0.779217 0.184682
0.807311 0.779318 0.187996
0.817677 0.779474 0.191488
0.826169 0.779795 0.194850
0.833760 0.780060 0.198112
0.841029 0.780332 0.201250
0.848102 0.780621 0.204345
0.854990 0.780927 0.207397
0.861700 0.781248 0.210409
0.868240 0.781583 0.213381
0.874141 0.781998 0.216313
0.879444 0.782485 0.219207
0.884620 0.782982 0.222066
0.256701 0.794416 0.131588
0.328707 0.793833 0.135286
0.387353 0.793323 0.138846
0.441071 0.792914 0.142736
0.489267 0.792545 0.146496
0.523768 0.792097 0.149971
0.556328 0.791727 0.153357
0.587315 0.791378 0.156875
0.616912 0.790921 0.160798
0.642418 0.790538 0.164537
0.663062 0.790166 0.168116
0.682899 0.789847 0.171633
0.701988 0.789576 0.175088
0.720354 0.789350 0.178527
0.736953 0.789229 0.182148
0.751114 0.789255 0.185608
0.763472 0.789219 0.188997
0.775333 0.789207 0.192268
0.786823 0.789226 0.195432
0.797964 0.789272 0.198548
0.808744 0.789346 0.201618
0.817387 0.789611 0.204644
0.825727 0.789896 0.207758
0.833815 0.790200 0.210871
0.841225 0.790467 0.213914
0.848168 0.790720 0.216900
0.854931 0.790989 0.219845
0.861524 0.791272 0.222752
0.867596 0.791619 0.225621
0.872946 0.792056 0.228452
0.878168 0.792503 0.231247
0.883267 0.792960 0.234010
0.288827 0.805307 0.146884
0.349094 0.804496 0.150632
0.406016 0.803783 0.154296
0.458326 0.803166 0.158289
0.502798 0.802578 0.162031
0.536007 0.801911 0.165619
0.567691 0.801318 0.169138
0.597980 0.800792 0.172591
0.625088 0.800369 0.176266
0.649112 0.800047 0.179771
0.669669 0.799688 0.183204
0.688920 0.799360 0.186438
0.707467 0.799078 0.189599
0.724782 0.798873 0.192710
0.739172 0.798842 0.195861
0.752977 0.798846 0.199071
0.766147 0.798867 0.202226
0.777726 0.798832 0.205321
0.788951 0.798826 0.208368
0.799841 0.798846 0.211370
0.808769 0.799040 0.214329
0.817235 0.799272 0.217247
0.825464 0.799522 0.220125
0.833423 0.799791 0.223068
0.841145 0.800076 0.226033
0.848390 0.800345 0.228942
0.855034 0.800581 0.231790
0.861275 0.800864 0.234599
0.866670 0.801255 0.237371
0.871936 0.801656 0.240109
0.877078 0.802067 0.242814
0.882102 0.802487 0.245487
0.316006 0.814160 0.163393
0.373482 0.813384 0.166964
0.427908 0.812700 0.170459
0.474069 0.812063 0.174087
0.515253 0.811479 0.177559
0.548555 0.810855 0.180809
0.579108 0.810274 0.183992
0.607329 0.809779 0.187113
0.631721 0.809400 0.190310
0.654998 0.809075 0.193523
0.676316 0.808759 0.196675
0.695006 0.808424 0.199766
0.712823 0.808145 0.202805
0.727410 0.808060 0.205799
0.741507 0.808007 0.208747
0.755009 0.807989 0.211795
0.768041 0.808001 0.214838
0.780226 0.808007 0.217831
0.791195 0.807978 0.220770
0.800436 0.808104 0.223667
0.808969 0.808290 0.226523
0.817263 0.808494 0.229341
0.825331 0.808715 0.232120
0.833183 0.808951 0.234864
0.840797 0.809205 0.237653
0.848184 0.809475 0.240483
0.855160 0.809761 0.243270
0.860674 0.809962 0.246103
0.866059 0.810171 0.248906
0.871320 0.810390 0.251675
0.876461 0.810620 0.254413
0.881487 0.810860 0.257121
0.342185 0.822608 0.178570
0.397218 0.821868 0.181767
0.445875 0.821181 0.184881
0.487701 0.820543 0.188085
0.527325 0.819976 0.191275
0.560833 0.819392 0.194393
0.589738 0.818836 0.197445
0.614598 0.818398 0.200435
0.638353 0.818015 0.203433
0.660918 0.817687 0.206523
0.682646 0.817402 0.209558
0.701078 0.817071 0.212534
0.715941 0.816929 0.215464
0.730146 0.816829 0.218349
0.743886 0.816760 0.221189
0.757173 0.816720 0.224004
0.769898 0.816713 0.226942
0.782246 0.816725 0.229840
0.792476 0.816680 0.232808
0.801180 0.816678 0.235730
0.809642 0.816696 0.238613
0.817876 0.816732 0.241458
0.825892 0.816785 0.244268
0.833702 0.816853 0.247042
0.841315 0.816937 0.249783
0.848715 0.817037 0.252550
0.854830 0.817253 0.255354
0.860792 0.817481 0.258097
0.866124 0.817670 0.260785
0.871299 0.817868 0.263441
0.876359 0.818074 0.266067
0.881309 0.818291 0.268663
0.367570 0.830691 0.192278
0.417628 0.829959 0.195326
0.460620 0.829264 0.198294
0.500942 0.828645 0.201343
0.539116 0.828093 0.204405
0.572669 0.827551 0.207401
0.597730 0.827066 0.210327
0.621790 0.826633 0.213202
0.644945 0.826236 0.216041
0.667120 0.825771 0.219134
0.688480 0.825349 0.222187
0.705337 0.825041 0.225181
0.719815 0.824759 0.228131
0.733823 0.824510 0.231038
0.747388 0.824290 0.233903
0.760537 0.824097 0.236728
0.773228 0.823934 0.239586
0.784338 0.823870 0.242497
0.794028 0.823896 0.245357
0.802772 0.823894 0.248182
0.811061 0.823896 0.250963
0.819133 0.823916 0.253685
0.826997 0.823952 0.256374
0.834662 0.824004 0.259030
0.842137 0.824070 0.261654
0.848494 0.824238 0.264235
0.854539 0.824432 0.266821
0.860404 0.824638 0.269479
0.866133 0.824854 0.272107
0.871380 0.825044 0.274690
0.876362 0.825230 0.277239
0.881238 0.825425 0.279760
0.390669 0.838271 0.205549
0.434464 0.837403 0.208585
0.476209 0.836608 0.211564
0.515558 0.835884 0.214603
0.552799 0.835224 0.217676
0.582893 0.834608 0.220662
0.607387 0.834001 0.223604
0.630944 0.833443 0.226498
0.653629 0.832931 0.229346
0.675289 0.832468 0.232261
0.693689 0.832132 0.235193
0.710400 0.831867 0.238075
0.724532 0.831583 0.240922
0.738186 0.831329 0.243729
0.751428 0.831102 0.246475
0.764276 0.830903 0.249171
0.775906 0.830781 0.251830
0.785699 0.830775 0.254565
0.795185 0.830788 0.257304
0.804411 0.830818 0.260007
0.812570 0.830808 0.262678
0.820484 0.830813 0.265316
0.828198 0.830834 0.267922
0.835722 0.830869 0.270496
0.842263 0.830994 0.273029
0.848365 0.831157 0.275530
0.854325 0.831330 0.278002
0.860140 0.831514 0.280468
0.865779 0.831711 0.283020
0.871294 0.831916 0.285544
0.876460 0.832107 0.288030
0.881263 0.832283 0.290480
0.411460 0.844531 0.219290
0.453543 0.843696 0.222205
0.493731 0.842929 0.225068
0.531771 0.842227 0.227970
0.563914 0.841587 0.230899
0.593587 0.840997 0.233770
0.617309 0.840403 0.236604
0.640151 0.839855 0.239394
0.662191 0.839352 0.242102
0.681441 0.838960 0.244811
0.698279 0.838663 0.247603
0.714563 0.838397 0.250353
0.729276 0.838134 0.253067
0.742604 0.837876 0.255748
0.755533 0.837644 0.258391
0.767533 0.837473 0.260999
0.777486 0.837432 0.263572
0.787152 0.837409 0.266120
0.796441 0.837409 0.268774
0.805481 0.837426 0.271395
0.814147 0.837449 0.273983
0.821909 0.837441 0.276541
0.829479 0.837448 0.279069
0.836205 0.837531 0.281558
0.842348 0.837666 0.284013
0.848347 0.837811 0.286440
0.854209 0.837968 0.288841
0.859938 0.838134 0.291217
0.865539 0.838309 0.293570
0.870969 0.838496 0.296024
0.876285 0.838692 0.298452
0.881376 0.838884 0.300849
0.431436 0.850545 0.232491
0.471950 0.849742 0.235280
0.510734 0.849003 0.237991
0.544343 0.848322 0.240711
0.574380 0.847700 0.243487
0.603248 0.847127 0.246217
0.627108 0.846556 0.248912
0.649296 0.846020 0.251567
0.669207 0.845576 0.254185
0.686465 0.845238 0.256768
0.702893 0.844940 0.259450
0.718762 0.844673 0.262110
0.734005 0.844429 0.264733
0.747014 0.844168 0.267327
0.759383 0.843949 0.269887
0.769401 0.843879 0.272412
0.779138 0.843827 0.274904
0.788608 0.843794 0.277366
0.797780 0.843780 0.279852
0.806642 0.843785 0.282395
0.815277 0.843805 0.284906
0.823398 0.843819 0.287389
0.830307 0.843862 0.289836
0.836490 0.843971 0.292248
0.842528 0.844091 0.294633
0.848427 0.844221 0.296992
0.854200 0.844352 0.299330
0.859919 0.844390 0.301700
0.865516 0.844437 0.304046
0.870995 0.844493 0.306368
0.876318 0.844560 0.308780
0.881302 0.844657 0.311169
0.450883 0.856344 0.244946
0.489954 0.855570 0.247605
0.524743 0.854852 0.250216
0.555571 0.854189 0.252821
0.584649 0.853583 0.255501
0.612630 0.853023 0.258137
0.636711 0.852475 0.260738
0.657210 0.851985 0.263306
0.674585 0.851617 0.265840
0.691384 0.851282 0.268338
0.707490 0.850981 0.270882
0.722964 0.850713 0.273458
0.737968 0.850470 0.275999
0.751405 0.850225 0.278510
0.761523 0.850125 0.280990
0.771322 0.850048 0.283438
0.780852 0.849988 0.285856
0.790143 0.849929 0.288253
0.799290 0.849792 0.290678
0.808129 0.849675 0.293169
0.816715 0.849574 0.295673
0.824640 0.849519 0.298136
0.831196 0.849511 0.300560
